logos/vernemq.svg

<?xml version="1.0" encoding="UTF-8" standalone="no"?>
<svg width="256px" height="230px" viewBox="0 0 256 230" version="1.1" xmlns="http://www.w3.org/2000/svg" xmlns:xlink="http://www.w3.org/1999/xlink" preserveAspectRatio="xMidYMid">
    <defs>
        <linearGradient x1="50%" y1="0%" x2="51.6689645%" y2="69.2490796%" id="linearGradient-1">
            <stop stop-color="#54BEAF" offset="0%"></stop>
            <stop stop-color="#25488D" offset="100%"></stop>
        </linearGradient>
        <linearGradient x1="50%" y1="0%" x2="50%" y2="100%" id="linearGradient-2">
            <stop stop-color="#0E2E62" offset="0%"></stop>
            <stop stop-color="#08154E" offset="100%"></stop>
        </linearGradient>
    </defs>
	<g>
		<path d="M128.22116,229.503163 C122.572497,229.503163 116.848095,228.065625 111.603882,225.040583 C95.6591716,215.844276 90.1892544,195.465767 99.3840473,179.522571 L193.301207,16.6823347 C202.496,0.737624622 222.872994,-4.73229254 238.819219,4.46250036 C254.762414,13.6588081 260.233846,34.0373169 251.037538,49.9805122 L157.120379,212.820749 C150.950627,223.519731 139.744189,229.503163 128.22116,229.503163" fill="url(#linearGradient-1)"></path>
		<path d="M156.914889,212.319168 C154.107978,217.222553 150.016522,221.476091 144.785942,224.525369 C128.885161,233.794387 108.480901,228.418387 99.2118831,212.517606 L4.54035645,50.1151443 C-4.7286613,34.2128484 0.645823906,13.8116177 16.5481198,4.54108511 C32.4489008,-4.72944744 52.8531612,0.646552562 62.1221789,16.5473336 L156.792191,178.95131 C163.01193,189.619996 162.637777,202.32002 156.914889,212.319168" fill="url(#linearGradient-1)"></path>
		<path d="M157.020071,179.401847 L128.10116,129.792379 L99.4124973,179.535148 C90.2177044,195.478344 95.6876216,215.856852 111.632332,225.05316 C112.710864,225.67574 113.813633,226.213491 114.928521,226.70277 C115.292071,226.860308 115.654107,227.022391 116.023716,227.166296 C116.438769,227.331409 116.855338,227.485918 117.274935,227.632852 C117.947503,227.867645 118.624616,228.084261 119.309302,228.275125 C119.518343,228.332687 119.72587,228.397823 119.934912,228.452355 C120.789255,228.672 121.651172,228.850746 122.520663,229.002225 C122.761515,229.044639 123.002367,229.082509 123.243219,229.120379 C124.139977,229.25671 125.041278,229.36729 125.948639,229.430912 C125.991054,229.433941 126.031953,229.44 126.074367,229.44303 C127.016568,229.505136 127.964829,229.51271 128.913089,229.494533 C129.156971,229.489989 129.400852,229.4809 129.646249,229.470296 C130.547551,229.432426 131.450367,229.368805 132.350154,229.25671 C132.406201,229.249136 132.462249,229.247622 132.518296,229.240048 C133.48019,229.115835 134.439054,228.937089 135.394888,228.726533 C135.590296,228.682604 135.78419,228.638675 135.979598,228.591716 C139.077349,227.850983 142.120568,226.66187 145.013823,224.975906 C150.244403,221.926628 154.335858,217.673089 157.142769,212.769705 C162.865657,202.770557 163.239811,190.070533 157.020071,179.401847" fill="url(#linearGradient-2)"></path>
		<path d="M140.87574,197.816568 C140.87574,204.717964 135.280095,210.313609 128.378698,210.313609 C121.477302,210.313609 115.881657,204.717964 115.881657,197.816568 C115.881657,190.915172 121.477302,185.319527 128.378698,185.319527 C135.280095,185.319527 140.87574,190.915172 140.87574,197.816568" fill="#FFFFFF"></path>
		<path d="M234.792899,31.1893491 C234.792899,38.0907456 229.197254,43.6863905 222.295858,43.6863905 C215.394462,43.6863905 209.798817,38.0907456 209.798817,31.1893491 C209.798817,24.2879527 215.394462,18.6923077 222.295858,18.6923077 C229.197254,18.6923077 234.792899,24.2879527 234.792899,31.1893491" fill="#FFFFFF"></path>
		<path d="M46.2011834,31.1893491 C46.2011834,38.0907456 40.6055385,43.6863905 33.704142,43.6863905 C26.8027456,43.6863905 21.2071006,38.0907456 21.2071006,31.1893491 C21.2071006,24.2879527 26.8027456,18.6923077 33.704142,18.6923077 C40.6055385,18.6923077 46.2011834,24.2879527 46.2011834,31.1893491" fill="#FFFFFF"></path>
	</g>
</svg>

<svg preserveAspectRatio="xMidYMid" viewBox="0 0 256 230" xmlns="http://www.w3.org/2000/svg">
  <defs>
    <linearGradient id="vernemq_svg__a" x1="50%" x2="51.669%" y1="0%" y2="69.249%">
      <stop offset="0%" stop-color="#54BEAF"/>
      <stop offset="100%" stop-color="#25488D"/>
    </linearGradient>
    <linearGradient id="vernemq_svg__b" x1="50%" x2="50%" y1="0%" y2="100%">
      <stop offset="0%" stop-color="#0E2E62"/>
      <stop offset="100%" stop-color="#08154E"/>
    </linearGradient>
  </defs>
  <path fill="url(#vernemq_svg__a)" d="M128.221 229.503a33.165 33.165 0 0 1-16.617-4.462c-15.945-9.197-21.415-29.575-12.22-45.518l93.917-162.84C202.496.737 222.873-4.733 238.82 4.462c15.943 9.196 21.415 29.574 12.219 45.518L157.12 212.82c-6.17 10.699-17.376 16.682-28.899 16.682"/>
  <path fill="url(#vernemq_svg__a)" d="M156.915 212.32a33.175 33.175 0 0 1-12.13 12.205c-15.9 9.27-36.304 3.893-45.573-12.007L4.54 50.115C-4.729 34.213.646 13.812 16.548 4.541c15.9-9.27 36.305-3.894 45.574 12.006l94.67 162.404c6.22 10.669 5.846 23.369.123 33.368"/>
  <path fill="url(#vernemq_svg__b)" d="m157.02 179.402-28.919-49.61-28.689 49.743c-9.194 15.943-3.724 36.322 12.22 45.518a33.452 33.452 0 0 0 3.297 1.65c.363.157.725.32 1.095.463a33.322 33.322 0 0 0 3.286 1.109c.208.058.416.123.625.177.854.22 1.716.399 2.586.55.24.043.481.08.722.118a33.67 33.67 0 0 0 2.706.31c.042.004.083.01.125.013a33.444 33.444 0 0 0 3.572.027 33.101 33.101 0 0 0 2.704-.213c.056-.008.112-.01.168-.017a33.086 33.086 0 0 0 3.462-.648 33.275 33.275 0 0 0 9.034-3.616 33.175 33.175 0 0 0 12.129-12.206c5.723-10 6.097-22.7-.123-33.368"/>
  <path fill="#FFF" d="M140.876 197.817c0 6.901-5.596 12.497-12.497 12.497-6.902 0-12.497-5.596-12.497-12.497 0-6.902 5.595-12.497 12.497-12.497 6.901 0 12.497 5.595 12.497 12.497"/>
  <path fill="#FFF" d="M234.793 31.19c0 6.9-5.596 12.496-12.497 12.496-6.902 0-12.497-5.595-12.497-12.497 0-6.901 5.595-12.497 12.497-12.497 6.901 0 12.497 5.596 12.497 12.497"/>
  <path fill="#FFF" d="M46.201 31.19c0 6.9-5.595 12.496-12.497 12.496-6.901 0-12.497-5.595-12.497-12.497 0-6.901 5.596-12.497 12.497-12.497 6.902 0 12.497 5.596 12.497 12.497"/>
</svg>
